X:1
T:Dunmore Lasses
R: reel
O:Trad. (11.9.2013/NS)
M:4/4
L:1/8
K:Dmaj
"Em"E2 EF G2 GA|Be~e2 Be~e2|E2 EF G2BG|"D"A2BA GAFG|
"Em"E2 EF G2 GA|Beed e2 ef|"C"(3gfe fd edBG|"D"A2BA GAFG:|
|:"Em"gfeg fedA|Be~e2 Be~e2|gfeg fedB|"D"A2BA GE~E2|
"C"~g3e ~f3A|Beed e2ef|"D"(3gfe fd edBG|A2BA GEE2:|
